icons/luggage-deposit-fill.svg

<svg xmlns="http://www.w3.org/2000/svg" width="24" height="24" fill="none"><g clip-path="url(#a)"><g><path fill="#121212" d="M15 3C15.552 3 16 3.448 16 4V6H20C20.552 6 21 6.448 21 7V19H23V21H1V19H3V7C3 6.448 3.448 6 4 6H8V4C8 3.448 8.448 3 9 3H15ZM10 8H8V19H10V8ZM16 8H14V19H16V8ZM14 5H10V6H14V5Z"/></g></g><defs><clipPath id="a"><rect width="24" height="24" fill="white"/></clipPath></defs></svg>

<svg width="24" height="24" fill="none" xmlns="http://www.w3.org/2000/svg"><g clip-path="url(#a)"><path d="M15 3a1 1 0 0 1 1 1v2h4a1 1 0 0 1 1 1v12h2v2H1v-2h2V7a1 1 0 0 1 1-1h4V4a1 1 0 0 1 1-1h6Zm-5 5H8v11h2V8Zm6 0h-2v11h2V8Zm-2-3h-4v1h4V5Z" /></g><defs><clipPath id="a"><path fill="#fff" d="M0 0h24v24H0z"/></clipPath></defs></svg>
